X:318
T: WAS KANN SCHOENER SEYN, WAS KANN MEHR ERFREUN
N: Z0315
O: Europa, Mitteleuropa, Deutschland, Emmenthal
R: Lyrisches Lied, Romanze
M: 3/4
L: 1/16
K: G
G3ABcBAG4 | B3cdedcB4 |
d2d2c2c2B2B2 | A3cB8 |
G3ABcBAG4 | B3cdedcB4 |
d2d2c2c2B2B2 | A3cB8 |
d3cB4B3d | c2B2A4A4 |
d3cB4-B3d | c2B2A4A4 |
G3ABcBAG4 | B3cdedcB4 |
d2d2c2c2B2B2 | A3cB8 |
d3cB4B3d | c2B2A4A4 |
d3cB4-B3d | c2B2A4A4 |
G3ABcBAG4 | B3cdedcB4 |
d2d2c2c2B2B2 | A3cB8

@@@ Tune index: 10076
